X:966
T:Scatter the Mud
N:"1st Setting"
N:"Collected by F.O'Neill"
B:O'Neill's 966
Z:Transcribed by Dan G. Petersen, dangp@post6.tele.dk
M:6/8
L:1/8
K:C
d|eAA B2(c/B/ A)|eAA ABd|eAA B2(c/B/ A)|BGG GBd|
eAA B2(c/B/ A)|eAA ABd|edc BcA|BGG G2:|
d|gfg efg|fag fed|gfg efg|afd d2d|
gfg efg|fag fed|edc BcA|BGG G2:|


